images/catalog-categories/fitness-bracelets.svg

<svg width="108" height="66" viewBox="0 0 108 66" fill="none" xmlns="http://www.w3.org/2000/svg">
<path d="M98.967 5.07411C99.719 6.51511 100.176 8.15411 100.176 9.89211V30.9941C100.176 35.6101 97.084 39.5211 92.93 40.8941C91.605 44.8811 89.152 48.7481 84.879 51.3261C76.203 56.5571 53.755 56.1631 53.681 56.1631C53.603 56.1631 31.168 56.5581 22.492 51.3261C18.276 48.7811 15.784 44.9791 14.45 41.0471C10.032 39.8381 6.694 35.7961 6.694 30.9941V9.89311C6.694 8.20511 7.121 6.61111 7.833 5.20011C4.17 6.10911 0 7.91811 0 11.4341C0 17.6771 0 37.1211 0 41.4171C0 51.6681 11.839 65.8501 53.657 65.8501C95.477 65.8501 107.314 51.6681 107.314 41.4171C107.314 37.1211 107.314 17.6771 107.314 11.4341C107.313 7.75011 102.738 5.94011 98.967 5.07411Z" fill="#363636"/>
<path d="M20.561 39.4591H86.084C91.648 39.4591 96.158 34.9461 96.158 29.3821V10.9351C96.158 5.37211 91.648 0.860107 86.084 0.860107H20.561C14.997 0.860107 10.486 5.37111 10.486 10.9351V29.3821C10.486 34.9461 14.997 39.4591 20.561 39.4591ZM83.695 10.4681C84.562 10.4681 85.264 11.1711 85.264 12.0381C85.264 12.9041 84.562 13.6071 83.695 13.6071C82.828 13.6071 82.127 12.9041 82.127 12.0381C82.127 11.1701 82.828 10.4681 83.695 10.4681ZM83.695 14.5071C84.562 14.5071 85.264 15.2101 85.264 16.0751C85.264 16.9421 84.562 17.6441 83.695 17.6441C82.828 17.6441 82.127 16.9421 82.127 16.0751C82.127 15.2101 82.828 14.5071 83.695 14.5071ZM83.695 18.5461C84.562 18.5461 85.264 19.2481 85.264 20.1151C85.264 20.9811 84.562 21.6841 83.695 21.6841C82.828 21.6841 82.127 20.9811 82.127 20.1151C82.127 19.2481 82.828 18.5461 83.695 18.5461ZM83.695 22.3731C84.562 22.3731 85.264 23.0771 85.264 23.9421C85.264 24.8091 84.562 25.5101 83.695 25.5101C82.828 25.5101 82.127 24.8091 82.127 23.9421C82.127 23.0761 82.828 22.3731 83.695 22.3731ZM83.695 26.4121C84.562 26.4121 85.264 27.1141 85.264 27.9811C85.264 28.8461 84.562 29.5491 83.695 29.5491C82.828 29.5491 82.127 28.8451 82.127 27.9811C82.127 27.1141 82.828 26.4121 83.695 26.4121ZM79.656 10.4681C80.523 10.4681 81.224 11.1711 81.224 12.0381C81.224 12.9041 80.523 13.6071 79.656 13.6071C78.791 13.6071 78.088 12.9041 78.088 12.0381C78.088 11.1701 78.791 10.4681 79.656 10.4681ZM79.656 26.4121C80.523 26.4121 81.224 27.1141 81.224 27.9811C81.224 28.8461 80.523 29.5491 79.656 29.5491C78.791 29.5491 78.088 28.8451 78.088 27.9811C78.088 27.1141 78.791 26.4121 79.656 26.4121ZM75.619 10.4681C76.484 10.4681 77.187 11.1711 77.187 12.0381C77.187 12.9041 76.484 13.6071 75.619 13.6071C74.752 13.6071 74.05 12.9041 74.05 12.0381C74.05 11.1701 74.752 10.4681 75.619 10.4681ZM75.619 14.5071C76.484 14.5071 77.187 15.2101 77.187 16.0751C77.187 16.9421 76.484 17.6441 75.619 17.6441C74.752 17.6441 74.05 16.9421 74.05 16.0751C74.05 15.2101 74.752 14.5071 75.619 14.5071ZM75.619 18.5461C76.484 18.5461 77.187 19.2481 77.187 20.1151C77.187 20.9811 76.484 21.6841 75.619 21.6841C74.752 21.6841 74.05 20.9811 74.05 20.1151C74.05 19.2481 74.752 18.5461 75.619 18.5461ZM75.619 22.3731C76.484 22.3731 77.187 23.0771 77.187 23.9421C77.187 24.8091 76.484 25.5101 75.619 25.5101C74.752 25.5101 74.05 24.8091 74.05 23.9421C74.05 23.0761 74.752 22.3731 75.619 22.3731ZM75.619 26.4121C76.484 26.4121 77.187 27.1141 77.187 27.9811C77.187 28.8461 76.484 29.5491 75.619 29.5491C74.752 29.5491 74.05 28.8451 74.05 27.9811C74.05 27.1141 74.752 26.4121 75.619 26.4121ZM67.965 10.4681C68.832 10.4681 69.533 11.1711 69.533 12.0381C69.533 12.9041 68.832 13.6071 67.965 13.6071C67.098 13.6071 66.397 12.9041 66.397 12.0381C66.396 11.1701 67.1 10.4681 67.965 10.4681ZM67.965 18.5461C68.832 18.5461 69.533 19.2481 69.533 20.1151C69.533 20.9811 68.832 21.6841 67.965 21.6841C67.098 21.6841 66.397 20.9811 66.397 20.1151C66.396 19.2481 67.1 18.5461 67.965 18.5461ZM67.965 22.4271C68.832 22.4271 69.533 23.1281 69.533 23.9951C69.533 24.8601 68.832 25.5641 67.965 25.5641C67.098 25.5641 66.397 24.8601 66.397 23.9951C66.396 23.1281 67.1 22.4271 67.965 22.4271ZM67.965 26.4121C68.832 26.4121 69.533 27.1141 69.533 27.9811C69.533 28.8461 68.832 29.5491 67.965 29.5491C67.098 29.5491 66.397 28.8451 66.397 27.9811C66.396 27.1141 67.1 26.4121 67.965 26.4121ZM63.926 10.4681C64.793 10.4681 65.496 11.1711 65.496 12.0381C65.496 12.9041 64.793 13.6071 63.926 13.6071C63.061 13.6071 62.357 12.9041 62.357 12.0381C62.356 11.1701 63.061 10.4681 63.926 10.4681ZM63.926 18.5461C64.793 18.5461 65.496 19.2481 65.496 20.1151C65.496 20.9811 64.793 21.6841 63.926 21.6841C63.061 21.6841 62.357 20.9811 62.357 20.1151C62.356 19.2481 63.061 18.5461 63.926 18.5461ZM63.926 26.4121C64.793 26.4121 65.496 27.1141 65.496 27.9811C65.496 28.8461 64.793 29.5491 63.926 29.5491C63.061 29.5491 62.357 28.8451 62.357 27.9811C62.356 27.1141 63.061 26.4121 63.926 26.4121ZM59.888 10.4681C60.753 10.4681 61.457 11.1711 61.457 12.0381C61.457 12.9041 60.753 13.6071 59.888 13.6071C59.021 13.6071 58.32 12.9041 58.32 12.0381C58.319 11.1701 59.021 10.4681 59.888 10.4681ZM59.888 14.5071C60.753 14.5071 61.457 15.2101 61.457 16.0751C61.457 16.9421 60.753 17.6441 59.888 17.6441C59.021 17.6441 58.32 16.9421 58.32 16.0751C58.319 15.2101 59.021 14.5071 59.888 14.5071ZM59.888 18.5461C60.753 18.5461 61.457 19.2481 61.457 20.1151C61.457 20.9811 60.753 21.6841 59.888 21.6841C59.021 21.6841 58.32 20.9811 58.32 20.1151C58.319 19.2481 59.021 18.5461 59.888 18.5461ZM59.888 26.4121C60.753 26.4121 61.457 27.1141 61.457 27.9811C61.457 28.8461 60.753 29.5491 59.888 29.5491C59.021 29.5491 58.32 28.8451 58.32 27.9811C58.319 27.1141 59.021 26.4121 59.888 26.4121ZM51.598 10.4681C52.465 10.4681 53.167 11.1711 53.167 12.0381C53.167 12.9041 52.465 13.6071 51.598 13.6071C50.731 13.6071 50.03 12.9041 50.03 12.0381C50.029 11.1701 50.731 10.4681 51.598 10.4681ZM51.598 14.5071C52.465 14.5071 53.167 15.2101 53.167 16.0751C53.167 16.9421 52.465 17.6441 51.598 17.6441C50.731 17.6441 50.03 16.9421 50.03 16.0751C50.029 15.2101 50.731 14.5071 51.598 14.5071ZM51.598 18.5461C52.465 18.5461 53.167 19.2481 53.167 20.1151C53.167 20.9811 52.465 21.6841 51.598 21.6841C50.731 21.6841 50.03 20.9811 50.03 20.1151C50.029 19.2481 50.731 18.5461 51.598 18.5461ZM51.598 22.4271C52.465 22.4271 53.167 23.1281 53.167 23.9951C53.167 24.8601 52.465 25.5641 51.598 25.5641C50.731 25.5641 50.03 24.8601 50.03 23.9951C50.029 23.1281 50.731 22.4271 51.598 22.4271ZM51.598 26.4121C52.465 26.4121 53.167 27.1141 53.167 27.9811C53.167 28.8461 52.465 29.5491 51.598 29.5491C50.731 29.5491 50.03 28.8451 50.03 27.9811C50.029 27.1141 50.731 26.4121 51.598 26.4121ZM47.559 14.5071C48.426 14.5071 49.127 15.2101 49.127 16.0751C49.127 16.9421 48.426 17.6441 47.559 17.6441C46.692 17.6441 45.99 16.9421 45.99 16.0751C45.99 15.2101 46.691 14.5071 47.559 14.5071ZM39.057 14.2951C39.922 14.2951 40.626 14.9981 40.626 15.8631C40.626 16.7301 39.922 17.4321 39.057 17.4321C38.19 17.4321 37.486 16.7291 37.486 15.8631C37.486 14.9981 38.189 14.2951 39.057 14.2951ZM39.057 18.3331C39.922 18.3331 40.626 19.0361 40.626 19.9031C40.626 20.7691 39.922 21.4731 39.057 21.4731C38.19 21.4731 37.486 20.7691 37.486 19.9031C37.486 19.0361 38.189 18.3331 39.057 18.3331ZM35.018 10.2551C35.883 10.2551 36.586 10.9581 36.586 11.8251C36.586 12.6911 35.882 13.3931 35.018 13.3931C34.151 13.3931 33.449 12.6901 33.449 11.8251C33.449 10.9581 34.15 10.2551 35.018 10.2551ZM35.018 14.2951C35.883 14.2951 36.586 14.9981 36.586 15.8631C36.586 16.7301 35.882 17.4321 35.018 17.4321C34.151 17.4321 33.449 16.7291 33.449 15.8631C33.449 14.9981 34.15 14.2951 35.018 14.2951ZM35.018 18.3331C35.883 18.3331 36.586 19.0361 36.586 19.9031C36.586 20.7691 35.882 21.4731 35.018 21.4731C34.151 21.4731 33.449 20.7691 33.449 19.9031C33.449 19.0361 34.15 18.3331 35.018 18.3331ZM35.018 22.3731C35.883 22.3731 36.586 23.0771 36.586 23.9421C36.586 24.8091 35.882 25.5101 35.018 25.5101C34.151 25.5101 33.449 24.8091 33.449 23.9421C33.449 23.0761 34.15 22.3731 35.018 22.3731ZM30.764 14.2951C31.631 14.2951 32.333 14.9981 32.333 15.8631C32.333 16.7301 31.631 17.4321 30.764 17.4321C29.897 17.4321 29.196 16.7291 29.196 15.8631C29.196 14.9981 29.897 14.2951 30.764 14.2951ZM30.764 18.3331C31.631 18.3331 32.333 19.0361 32.333 19.9031C32.333 20.7691 31.631 21.4731 30.764 21.4731C29.897 21.4731 29.196 20.7691 29.196 19.9031C29.196 19.0361 29.897 18.3331 30.764 18.3331ZM30.764 22.3731C31.631 22.3731 32.333 23.0771 32.333 23.9421C32.333 24.8091 31.631 25.5101 30.764 25.5101C29.897 25.5101 29.196 24.8091 29.196 23.9421C29.196 23.0761 29.897 22.3731 30.764 22.3731ZM30.764 26.4121C31.631 26.4121 32.333 27.1141 32.333 27.9811C32.333 28.8461 31.631 29.5491 30.764 29.5491C29.897 29.5491 29.196 28.8451 29.196 27.9811C29.196 27.1141 29.897 26.4121 30.764 26.4121ZM26.3 10.2551C27.167 10.2551 27.871 10.9581 27.871 11.8251C27.871 12.6911 27.167 13.3931 26.3 13.3931C25.435 13.3931 24.731 12.6901 24.731 11.8251C24.731 10.9581 25.435 10.2551 26.3 10.2551ZM26.3 14.2951C27.167 14.2951 27.871 14.9981 27.871 15.8631C27.871 16.7301 27.167 17.4321 26.3 17.4321C25.435 17.4321 24.731 16.7291 24.731 15.8631C24.731 14.9981 25.435 14.2951 26.3 14.2951ZM26.3 18.3331C27.167 18.3331 27.871 19.0361 27.871 19.9031C27.871 20.7691 27.167 21.4731 26.3 21.4731C25.435 21.4731 24.731 20.7691 24.731 19.9031C24.731 19.0361 25.435 18.3331 26.3 18.3331ZM26.3 22.3731C27.167 22.3731 27.871 23.0771 27.871 23.9421C27.871 24.8091 27.167 25.5101 26.3 25.5101C25.435 25.5101 24.731 24.8091 24.731 23.9421C24.731 23.0761 25.435 22.3731 26.3 22.3731ZM22.263 14.2951C23.128 14.2951 23.832 14.9981 23.832 15.8631C23.832 16.7301 23.128 17.4321 22.263 17.4321C21.396 17.4321 20.694 16.7291 20.694 15.8631C20.694 14.9981 21.396 14.2951 22.263 14.2951ZM22.263 18.3331C23.128 18.3331 23.832 19.0361 23.832 19.9031C23.832 20.7691 23.128 21.4731 22.263 21.4731C21.396 21.4731 20.694 20.7691 20.694 19.9031C20.694 19.0361 21.396 18.3331 22.263 18.3331Z" fill="#363636"/>
</svg>

<svg width="108" height="66" fill="none" xmlns="http://www.w3.org/2000/svg"><path d="M98.967 5.0741c.752 1.441 1.209 3.08 1.209 4.818v21.102c0 4.616-3.092 8.527-7.246 9.9-1.325 3.987-3.778 7.854-8.051 10.432-8.676 5.231-31.124 4.837-31.198 4.837-.078 0-22.513.395-31.189-4.837-4.216-2.545-6.708-6.347-8.042-10.279-4.418-1.209-7.756-5.251-7.756-10.053V9.8931c0-1.688.427-3.282 1.139-4.693C4.17 6.1091 0 7.9181 0 11.4341v29.983c0 10.251 11.839 24.433 53.657 24.433 41.82 0 53.657-14.182 53.657-24.433v-29.983c-.001-3.684-4.576-5.494-8.347-6.36Z" fill="#363636"/><path d="M20.561 39.4591h65.523c5.564 0 10.074-4.513 10.074-10.077v-18.447c0-5.563-4.51-10.075-10.074-10.075H20.561c-5.564 0-10.075 4.511-10.075 10.075v18.447c0 5.564 4.511 10.077 10.075 10.077Zm63.134-28.991c.867 0 1.569.703 1.569 1.57 0 .866-.702 1.569-1.569 1.569s-1.568-.703-1.568-1.569c0-.868.701-1.57 1.568-1.57Zm0 4.039c.867 0 1.569.703 1.569 1.568 0 .867-.702 1.569-1.569 1.569s-1.568-.702-1.568-1.569c0-.865.701-1.568 1.568-1.568Zm0 4.039c.867 0 1.569.702 1.569 1.569 0 .866-.702 1.569-1.569 1.569s-1.568-.703-1.568-1.569c0-.867.701-1.569 1.568-1.569Zm0 3.827c.867 0 1.569.704 1.569 1.569 0 .867-.702 1.568-1.569 1.568s-1.568-.701-1.568-1.568c0-.866.701-1.569 1.568-1.569Zm0 4.039c.867 0 1.569.702 1.569 1.569 0 .865-.702 1.568-1.569 1.568s-1.568-.704-1.568-1.568c0-.867.701-1.569 1.568-1.569Zm-4.039-15.944c.867 0 1.568.703 1.568 1.57 0 .866-.701 1.569-1.568 1.569-.865 0-1.568-.703-1.568-1.569 0-.868.703-1.57 1.568-1.57Zm0 15.944c.867 0 1.568.702 1.568 1.569 0 .865-.701 1.568-1.568 1.568-.865 0-1.568-.704-1.568-1.568 0-.867.703-1.569 1.568-1.569Zm-4.037-15.944c.865 0 1.568.703 1.568 1.57 0 .866-.703 1.569-1.568 1.569-.867 0-1.569-.703-1.569-1.569 0-.868.702-1.57 1.569-1.57Zm0 4.039c.865 0 1.568.703 1.568 1.568 0 .867-.703 1.569-1.568 1.569-.867 0-1.569-.702-1.569-1.569 0-.865.702-1.568 1.569-1.568Zm0 4.039c.865 0 1.568.702 1.568 1.569 0 .866-.703 1.569-1.568 1.569-.867 0-1.569-.703-1.569-1.569 0-.867.702-1.569 1.569-1.569Zm0 3.827c.865 0 1.568.704 1.568 1.569 0 .867-.703 1.568-1.568 1.568-.867 0-1.569-.701-1.569-1.568 0-.866.702-1.569 1.569-1.569Zm0 4.039c.865 0 1.568.702 1.568 1.569 0 .865-.703 1.568-1.568 1.568-.867 0-1.569-.704-1.569-1.568 0-.867.702-1.569 1.569-1.569Zm-7.654-15.944c.867 0 1.568.703 1.568 1.57 0 .866-.701 1.569-1.568 1.569-.867 0-1.568-.703-1.568-1.569-.001-.868.703-1.57 1.568-1.57Zm0 8.078c.867 0 1.568.702 1.568 1.569 0 .866-.701 1.569-1.568 1.569-.867 0-1.568-.703-1.568-1.569-.001-.867.703-1.569 1.568-1.569Zm0 3.881c.867 0 1.568.701 1.568 1.568 0 .865-.701 1.569-1.568 1.569-.867 0-1.568-.704-1.568-1.569-.001-.867.703-1.568 1.568-1.568Zm0 3.985c.867 0 1.568.702 1.568 1.569 0 .865-.701 1.568-1.568 1.568-.867 0-1.568-.704-1.568-1.568-.001-.867.703-1.569 1.568-1.569Zm-4.039-15.944c.867 0 1.57.703 1.57 1.57 0 .866-.703 1.569-1.57 1.569-.865 0-1.569-.703-1.569-1.569-.001-.868.704-1.57 1.569-1.57Zm0 8.078c.867 0 1.57.702 1.57 1.569 0 .866-.703 1.569-1.57 1.569-.865 0-1.569-.703-1.569-1.569-.001-.867.704-1.569 1.569-1.569Zm0 7.866c.867 0 1.57.702 1.57 1.569 0 .865-.703 1.568-1.57 1.568-.865 0-1.569-.704-1.569-1.568-.001-.867.704-1.569 1.569-1.569Zm-4.038-15.944c.865 0 1.569.703 1.569 1.57 0 .866-.704 1.569-1.569 1.569-.867 0-1.568-.703-1.568-1.569-.001-.868.701-1.57 1.568-1.57Zm0 4.039c.865 0 1.569.703 1.569 1.568 0 .867-.704 1.569-1.569 1.569-.867 0-1.568-.702-1.568-1.569-.001-.865.701-1.568 1.568-1.568Zm0 4.039c.865 0 1.569.702 1.569 1.569 0 .866-.704 1.569-1.569 1.569-.867 0-1.568-.703-1.568-1.569-.001-.867.701-1.569 1.568-1.569Zm0 7.866c.865 0 1.569.702 1.569 1.569 0 .865-.704 1.568-1.569 1.568-.867 0-1.568-.704-1.568-1.568-.001-.867.701-1.569 1.568-1.569Zm-8.29-15.944c.867 0 1.569.703 1.569 1.57 0 .866-.702 1.569-1.569 1.569s-1.568-.703-1.568-1.569c-.001-.868.701-1.57 1.568-1.57Zm0 4.039c.867 0 1.569.703 1.569 1.568 0 .867-.702 1.569-1.569 1.569s-1.568-.702-1.568-1.569c-.001-.865.701-1.568 1.568-1.568Zm0 4.039c.867 0 1.569.702 1.569 1.569 0 .866-.702 1.569-1.569 1.569s-1.568-.703-1.568-1.569c-.001-.867.701-1.569 1.568-1.569Zm0 3.881c.867 0 1.569.701 1.569 1.568 0 .865-.702 1.569-1.569 1.569s-1.568-.704-1.568-1.569c-.001-.867.701-1.568 1.568-1.568Zm0 3.985c.867 0 1.569.702 1.569 1.569 0 .865-.702 1.568-1.569 1.568s-1.568-.704-1.568-1.568c-.001-.867.701-1.569 1.568-1.569Zm-4.039-11.905c.867 0 1.568.703 1.568 1.568 0 .867-.701 1.569-1.568 1.569-.867 0-1.569-.702-1.569-1.569 0-.865.701-1.568 1.569-1.568Zm-8.502-.212c.865 0 1.569.703 1.569 1.568 0 .867-.704 1.569-1.569 1.569-.867 0-1.571-.703-1.571-1.569 0-.865.703-1.568 1.571-1.568Zm0 4.038c.865 0 1.569.703 1.569 1.57 0 .866-.704 1.57-1.569 1.57-.867 0-1.571-.704-1.571-1.57 0-.867.703-1.57 1.571-1.57Zm-4.039-8.078c.865 0 1.568.703 1.568 1.57 0 .866-.704 1.568-1.568 1.568-.867 0-1.569-.703-1.569-1.568 0-.867.701-1.57 1.569-1.57Zm0 4.04c.865 0 1.568.703 1.568 1.568 0 .867-.704 1.569-1.568 1.569-.867 0-1.569-.703-1.569-1.569 0-.865.701-1.568 1.569-1.568Zm0 4.038c.865 0 1.568.703 1.568 1.57 0 .866-.704 1.57-1.568 1.57-.867 0-1.569-.704-1.569-1.57 0-.867.701-1.57 1.569-1.57Zm0 4.04c.865 0 1.568.704 1.568 1.569 0 .867-.704 1.568-1.568 1.568-.867 0-1.569-.701-1.569-1.568 0-.866.701-1.569 1.569-1.569Zm-4.254-8.078c.867 0 1.569.703 1.569 1.568 0 .867-.702 1.569-1.569 1.569s-1.568-.703-1.568-1.569c0-.865.701-1.568 1.568-1.568Zm0 4.038c.867 0 1.569.703 1.569 1.57 0 .866-.702 1.57-1.569 1.57s-1.568-.704-1.568-1.57c0-.867.701-1.57 1.568-1.57Zm0 4.04c.867 0 1.569.704 1.569 1.569 0 .867-.702 1.568-1.569 1.568s-1.568-.701-1.568-1.568c0-.866.701-1.569 1.568-1.569Zm0 4.039c.867 0 1.569.702 1.569 1.569 0 .865-.702 1.568-1.569 1.568s-1.568-.704-1.568-1.568c0-.867.701-1.569 1.568-1.569ZM26.3 10.2551c.867 0 1.571.703 1.571 1.57 0 .866-.704 1.568-1.571 1.568-.865 0-1.569-.703-1.569-1.568 0-.867.704-1.57 1.569-1.57Zm0 4.04c.867 0 1.571.703 1.571 1.568 0 .867-.704 1.569-1.571 1.569-.865 0-1.569-.703-1.569-1.569 0-.865.704-1.568 1.569-1.568Zm0 4.038c.867 0 1.571.703 1.571 1.57 0 .866-.704 1.57-1.571 1.57-.865 0-1.569-.704-1.569-1.57 0-.867.704-1.57 1.569-1.57Zm0 4.04c.867 0 1.571.704 1.571 1.569 0 .867-.704 1.568-1.571 1.568-.865 0-1.569-.701-1.569-1.568 0-.866.704-1.569 1.569-1.569Zm-4.037-8.078c.865 0 1.569.703 1.569 1.568 0 .867-.704 1.569-1.569 1.569-.867 0-1.569-.703-1.569-1.569 0-.865.702-1.568 1.569-1.568Zm0 4.038c.865 0 1.569.703 1.569 1.57 0 .866-.704 1.57-1.569 1.57-.867 0-1.569-.704-1.569-1.57 0-.867.702-1.57 1.569-1.57Z" fill="#363636"/></svg>
